packages/vapor/resources/icons/svg/domain-saml.svg

<svg viewBox="0 0 48 48" xmlns="http://www.w3.org/2000/svg"><path d="m24.8189412 4.28381443c3.6931668 3.69310356 4.9061381 8.87809297 3.7865598 13.62307917l18.5691544 18.5691986c.2208047.216252.3578907.5159065.3773028.8243501l.4471105 8.4951626c.0297189.7145801-.6566599 1.3731369-1.3692798 1.3134463l-10.7307783-.8942842c-.6194165-.0518499-1.151447-.6219458-1.1597303-1.2435122v-4.1079027h-4.1078395c-.6574187-.0063232-1.2537558-.6000677-1.2574864-1.2574864v-4.1078395h-4.1079027c-.3300689 0-.6589363-.1317114-.894221-.3633287l-6.5110821-6.5110821c-4.7377019 1.1083864-9.9229569-.0863743-13.60908033-3.7725224-5.66889419-5.6688817-5.66888786-14.89837788 0-20.56727857 6.95518973-6.70419133 15.99031833-4.62551643 20.56727293 0zm-1.788442 1.78844196c-4.7023428-4.70234279-12.2880645-4.70227956-16.99038265 0-4.70230485 4.70234281-4.70232382 12.28807081 0 16.99033141 3.23211438 3.2321454 7.84643245 4.2274104 11.93242545 3.0180433.4315555-.1239339.9259633.0063231 1.2435122.3213428l6.5669788 6.5670421 4.862382-.0000633c.6574187.0063232 1.2537557.600131 1.2575496 1.2575497l-.0000632 4.1078395h4.1079027c.6574187.0063231 1.2537557.6001309 1.2575496 1.2575496l-.0000632 4.2196329 8.1318971.6706974-.3492912-6.5530679-18.6810111-18.6809921c-.3176122-.3229869-.4402182-.8244133-.3074319-1.2574864 1.2432593-5.7355088-.3548556-9.12680806-3.0319542-11.91841901zm-8.9423047 1.78844196c1.7179704 1.71793876 1.7179704 4.54167135 0 6.25961015-1.7179324 1.717964-4.54166498 1.717964-6.25960374 0-1.71795203-1.7179388-1.717971-4.54167139 0-6.25961015 1.71793243-1.71793875 4.54165874-1.71793875 6.25960374 0zm-1.7884609 1.7885052c-.7513808-.75138085-1.9313011-.75138085-2.6826819-.00006324-.75141247.75144409-.75139982 1.93134529 0 2.68272619.7513808.7513808 1.9312884.7513808 2.6827009 0 .7513745-.7513809.7513745-1.9312821-.000019-2.68266295z"/></svg>

<svg viewBox="0 0 48 48" xmlns="http://www.w3.org/2000/svg" xmlns:xlink="http://www.w3.org/1999/xlink">
    <path d="M24.8189412,4.28381443 C28.512108,7.97691799 29.7250793,13.1619074 28.605501,17.9068936 L47.1746554,36.4760922 C47.3954601,36.6923442 47.5325461,36.9919987 47.5519582,37.3004423 L47.9990687,45.7956049 C48.0287876,46.510185 47.3424088,47.1687418 46.6297889,47.1090512 L35.8990106,46.214767 C35.2795941,46.1629171 34.7475636,45.5928212 34.7392803,44.9712548 L34.7392803,40.8633521 L30.6314408,40.8633521 C29.9740221,40.8570289 29.377685,40.2632844 29.3739544,39.6058657 L29.3739544,35.4980262 L25.2660517,35.4980262 C24.9359828,35.4980262 24.6071154,35.3663148 24.3718307,35.1346975 L17.8607486,28.6236154 C13.1230467,29.7320018 7.9377917,28.5372411 4.25166827,24.851093 C-1.41722592,19.1822113 -1.41721959,9.95271512 4.25166827,4.28381443 C11.206858,-2.4203769 20.2419866,-0.341701996 24.8189412,4.28381443 L24.8189412,4.28381443 Z M23.0304992,6.07225639 C18.3281564,1.3699136 10.7424347,1.36997683 6.04011655,6.07225639 C1.3378117,10.7745992 1.33779273,18.3603272 6.04011655,23.0625878 C9.27223093,26.2947332 13.886549,27.2899982 17.972542,26.0806311 C18.4040975,25.9566972 18.8985053,26.0869542 19.2160542,26.4019739 L25.783033,32.969016 L30.645415,32.9689527 C31.3028337,32.9752759 31.8991707,33.5690837 31.9029646,34.2265024 L31.9029014,38.3343419 L36.0108041,38.3343419 C36.6682228,38.340665 37.2645598,38.9344728 37.2683537,39.5918915 L37.2682905,43.8115244 L45.4001876,44.4822218 L45.0508964,37.9291539 L26.3698853,19.2481618 C26.0522731,18.9251749 25.9296671,18.4237485 26.0624534,17.9906754 C27.3057127,12.2551666 25.7075978,8.86386734 23.0304992,6.07225639 L23.0304992,6.07225639 Z M14.0881945,7.86069835 C15.8061649,9.57863711 15.8061649,12.4023697 14.0881945,14.1203085 C12.3702621,15.8382725 9.54652952,15.8382725 7.82859076,14.1203085 C6.11063873,12.4023697 6.11061976,9.57863711 7.82859076,7.86069835 C9.54652319,6.1427596 12.3702495,6.1427596 14.0881945,7.86069835 Z M12.2997336,9.64920355 C11.5483528,8.8978227 10.3684325,8.8978227 9.6170517,9.64914031 C8.86563923,10.4005844 8.86565188,11.5804856 9.6170517,12.3318665 C10.3684325,13.0832473 11.5483401,13.0832473 12.2997526,12.3318665 C13.0511271,11.5804856 13.0511271,10.4005844 12.2997336,9.64920355 Z"/>
</svg>
